lib/brands/icons/kickstarter.svg

<svg xmlns="http://www.w3.org/2000/svg" fill="none" aria-hidden="true" viewBox="0 0 48 48"><g id="kickstarter-Icon"><path id="bg" fill="#2BDE73" fill-rule="evenodd" d="M24 45C35.598 45 45 35.598 45 24C45 12.402 35.598 3 24 3C12.402 3 3 12.402 3 24C3 35.598 12.402 45 24 45Z" clip-rule="evenodd"/><path id="K" fill="white" fill-rule="evenodd" d="M21.5355 20.179L26.0712 13.8021C26.9288 12.6007 28.0356 12 29.393 12C30.5001 12 31.458 12.3811 32.2681 13.1436C33.0774 13.906 33.482 14.8187 33.482 15.8815C33.482 16.6671 33.2682 17.3604 32.8394 17.9611L28.7498 23.7315L33.7501 29.8832C34.2501 30.4955 34.5 31.2119 34.5 32.032C34.5 33.1182 34.1075 34.0506 33.3216 34.8304C32.5358 35.6105 31.5829 36 30.4644 36C29.2379 36 28.3037 35.6134 27.6605 34.8391L21.5355 27.4225V31.5123C21.5355 32.6793 21.3274 33.5858 20.9105 34.2328C20.1487 35.4109 19.0415 36 17.5893 36C16.2678 36 15.2435 35.5668 14.5177 34.7005C13.8391 33.9033 13.5 32.846 13.5 31.5297V16.3667C13.5 15.119 13.8448 14.0912 14.5356 13.2824C15.2617 12.4277 16.2615 12 17.5354 12C18.7499 12 19.7616 12.4277 20.5712 13.2824C21.0235 13.7558 21.3092 14.2353 21.4282 14.7206C21.4997 15.0212 21.5355 15.5811 21.5355 16.4014V20.179" clip-rule="evenodd"/></g></svg>

<svg xmlns="http://www.w3.org/2000/svg" fill="none" aria-hidden="true" viewBox="0 0 48 48"><g fill-rule="evenodd" clip-rule="evenodd"><path fill="#2BDE73" d="M24 45c11.598 0 21-9.402 21-21S35.598 3 24 3 3 12.402 3 24s9.402 21 21 21Z"/><path fill="#fff" d="m21.535 20.179 4.536-6.377C26.93 12.601 28.036 12 29.393 12c1.107 0 2.065.381 2.875 1.144.81.762 1.214 1.675 1.214 2.738 0 .785-.214 1.478-.643 2.08l-4.09 5.77 5.001 6.151c.5.613.75 1.329.75 2.149 0 1.086-.392 2.019-1.178 2.798-.786.78-1.74 1.17-2.858 1.17-1.226 0-2.16-.387-2.803-1.16l-6.126-7.418v4.09c0 1.167-.208 2.074-.625 2.72-.76 1.18-1.869 1.768-3.32 1.768-1.322 0-2.347-.433-3.072-1.3-.679-.797-1.018-1.854-1.018-3.17V16.367c0-1.248.345-2.276 1.036-3.085.726-.854 1.726-1.282 3-1.282 1.214 0 2.226.428 3.035 1.282.452.474.738.953.857 1.439.072.3.107.86.107 1.68v3.778"/></g></svg>
